!!!!SEGMENT: Div2004-Per_lignum_salvi_facti_sumus.krn
!!!id: Div2004
!!!AGN: Motet
!!!voices: 5
!!!COM: Antonius Divitis
!!!OTL: Per lignum salvi facti sumus
**kern	**kern	**kern	**kern	**kern
*part5	*part4	*part3	*part2	*part1
*staff5	*staff4	*staff3	*staff2	*staff1
*I"Bassus	*I"Tenor II	*I"Tenor I	*I"Altus	*I"Superius
*I'B	*I'T. II	*I'T. I	*I'A	*I'S
*clefF4	*clefGv2	*clefGv2	*clefGv2	*clefG2
*k[]	*k[]	*k[]	*k[]	*k[]
*M2/1	*M2/1	*M2/1	*M2/1	*M2/1
*met(C|)	*met(C|)	*met(C|)	*met(C|)	*met(C|)
=1	=1	=1	=1	=1
!!section: Per lignum
!!!OMD: Per lignum
!	!LO:TX:a:t=Canon&colon; tenor II/tenor I at the upper fifth	!	!	!
0r	0r	0r	1.c	0r
.	.	.	4B	.
.	.	.	4A	.
=2	=2	=2	=2	=2
0r	0r	0r	0G	1.g
.	.	.	.	4f
.	.	.	.	4e
=3	=3	=3	=3	=3
0r	0r	0r	1.B	0d
.	.	.	2c	.
=4	=4	=4	=4	=4
0r	0r	0r	1.d	1.f
.	.	.	2c	2g
=5	=5	=5	=5	=5
0r	0r	0r	1.f	1.a
.	.	.	[2e	2g
=6	=6	=6	=6	=6
0r	0r	0r	4e]	1cc
.	.	.	4d	.
.	.	.	4c	.
.	.	.	4B	.
.	.	.	2A	1cc
.	.	.	[2e	.
=7	=7	=7	=7	=7
0r	0r	0r	4e]	1b
.	.	.	4d	.
.	.	.	1g	.
.	.	.	.	1a
.	.	.	2f#i	.
=8	=8	=8	=8	=8
0C	0r	0r	2g	1.g
.	.	.	1e	.
.	.	.	4d	[2e
.	.	.	4c	.
=9	=9	=9	=9	=9
0GG	0r	0r	2B	2e]
.	.	.	1c	4d
.	.	.	.	4c
.	.	.	.	1d
.	.	.	2B	.
=10	=10	=10	=10	=10
1C	0r	0r	2c	1e
.	.	.	2.G	.
1E	.	.	.	1g
.	.	.	4A	.
.	.	.	4B	.
.	.	.	4c	.
=11	=11	=11	=11	=11
0D	0r	0r	2d	0f
.	.	.	1c	.
.	.	.	2B	.
=12	=12	=12	=12	=12
0C	0r	0r	2.c	2e
.	.	.	.	2g
.	.	.	4d	.
.	.	.	4e	2a
.	.	.	4f	.
.	.	.	[2g	[2cc
=13	=13	=13	=13	=13
[0GG	0G	0r	2g]	2cc]
.	.	.	4f	4b
.	.	.	4e	4a
.	.	.	1d	2b
.	.	.	.	[2g
=14	=14	=14	=14	=14
0GG]	0D	0d	0g	4g]
.	.	.	.	4a
.	.	.	.	4b
.	.	.	.	4cc
.	.	.	.	[1dd
=15	=15	=15	=15	=15
1.D	1.F	0A	1.f	2dd]
.	.	.	.	4cc
.	.	.	.	4b
.	.	.	.	[1a
4C	2G	.	4e	.
4BB	.	.	4d	.
=16	=16	=16	=16	=16
1AA	1A	1.c	1.c	2a]
.	.	.	.	4g
.	.	.	.	4f
[1C	[1G	.	.	1e
.	.	2d	4B	.
.	.	.	4A	.
=17	=17	=17	=17	=17
1C]	1G]	1e	1G	1r
1D	1F	[1d	1d	1d
=18	=18	=18	=18	=18
0E	0G	1d]	1r	0g
.	.	1c#i	1G	.
=19	=19	=19	=19	=19
1D	0r	0d	1A	1f
[1G	.	.	[1B	1d
=20	=20	=20	=20	=20
2G]	0r	0r	2B]	1g
4F	.	.	4A	.
4E	.	.	4G	.
2F	.	.	2A	2f
2G	.	.	2B	2d
=21	=21	=21	=21	=21
2C	1G	0r	1c	2e
2D	.	.	.	2f
1E	1G	.	2B	1g
.	.	.	2c	.
=22	=22	=22	=22	=22
0D	1A	1d	2d	2.f
.	.	.	1f	.
.	.	.	.	4g
.	[1A	1d	.	2a
.	.	.	4e	2b
.	.	.	4d	.
=23	=23	=23	=23	=23
1AA	2A]	1e	2.c	1cc
.	4G	.	.	.
.	4F	.	4d	.
1E	1G	[1e	1e	[1b
=24	=24	=24	=24	=24
0F	0A	2e]	1c	1b]
.	.	4d	.	.
.	.	4c	.	.
.	.	1d	1A	[1a
=25	=25	=25	=25	=25
0E	0r	0e	0B	2a]
.	.	.	.	4g#i
.	.	.	.	4f#i
.	.	.	.	1g#i
=26	=26	=26	=26	=26
1AA	1A	0r	0r	1a
1r	1c	.	.	2r
.	.	.	.	2g
=27	=27	=27	=27	=27
0r	1A	1e	1c	2a
.	.	.	.	1cc
.	1G	1g	1d	.
.	.	.	.	2b
=28	=28	=28	=28	=28
1C	0r	1e	1c	2cc
.	.	.	.	1a
1D	.	1d	2A	.
.	.	.	2B	4g
.	.	.	.	4f
=29	=29	=29	=29	=29
1C	1G	0r	2c	2.e
.	.	.	2G	.
.	.	.	.	4f
1GG	2.G	.	2.B	4g
.	.	.	.	4a
.	.	.	.	[2g
.	4A	.	4c	.
=30	=30	=30	=30	=30
2.GG	4B	1d	1d	2g]
.	4c	.	.	.
.	1d	.	.	4f
4AA	.	.	.	4e
4BB	.	2.d	2r	[1d
4C	.	.	.	.
[2D	4c	.	2d	.
.	4B	4e	.	.
=31	=31	=31	=31	=31
2D]	2.A	4f	1d	1d]
.	.	4g	.	.
4C	.	1a	.	.
4BB	4B	.	.	.
2.AA	4c	.	2.e	1r
.	4d	.	.	.
.	[2c	4g	.	.
4BB	.	4f	4d	.
=32	=32	=32	=32	=32
4C	2c]	2.e	4e	0r
4D	.	.	4f	.
1C	4B	.	1e	.
.	4A	4f	.	.
.	[1G	4g	.	.
.	.	4a	.	.
4BB	.	[2g	4d	.
4AA	.	.	4c	.
=33	=33	=33	=33	=33
1GG	2G]	2g]	0d	0r
.	2D	4f	.	.
.	.	4e	.	.
2r	1G	[1d	.	.
[2G	.	.	.	.
=34	=34	=34	=34	=34
2G]	1A	2d]	2r	0r
2F	.	2A	2c	.
2.G	1G	1d	2B	.
.	.	.	[2G	.
4F	.	.	.	.
=35	=35	=35	=35	=35
4E	0r	1e	2G]	0r
4D	.	.	.	.
1C	.	.	2G	.
.	.	1d	2A	.
2BB	.	.	2B	.
=36	=36	=36	=36	=36
2.C	1.c	0r	0G	1.g
4D	.	.	.	.
2E	.	.	.	.
2F	2c	.	.	4f
.	.	.	.	4e
=37	=37	=37	=37	=37
1G	1B	1.g	2r	1d
.	.	.	2G	.
1E	1G	.	2B	1e
.	.	2g	2c	.
=38	=38	=38	=38	=38
1.D	2.A	1f	1d	2.f
.	4G	.	.	4e
.	2A	1d	1d	2f
4C	2B	.	.	2g
4BB	.	.	.	.
=39	=39	=39	=39	=39
1AA	1.c	2.e	2c	0a
.	.	.	1e	.
.	.	4d	.	.
2C	.	2e	.	.
2D	4B	2f	4d	.
.	4A	.	4c	.
=40	=40	=40	=40	=40
2E	0G	1.g	2B	0r
2C	.	.	2c	.
2E	.	.	2G	.
2F	.	4f	2A	.
.	.	4e	.	.
=41	=41	=41	=41	=41
1G	0r	0d	2B	[0g
.	.	.	2.G	.
2r	.	.	.	.
.	.	.	4A	.
[2G	.	.	[2B	.
=42	=42	=42	=42	=42
2G]	0r	0r	4B]	1g]
.	.	.	4c	.
2F	.	.	1d	.
1E	.	.	.	1g
.	.	.	2c#i	.
=43	=43	=43	=43	=43
0D	0r	0r	1.d	2.f
.	.	.	.	4e
.	.	.	.	4f
.	.	.	.	4g
.	.	.	4c	[2a
.	.	.	4B	.
=44	=44	=44	=44	=44
1r	0r	0r	2.A	4a]
.	.	.	.	4b
.	.	.	.	1cc
.	.	.	4G	.
1F	.	.	4A	.
.	.	.	4B	.
.	.	.	4c	4b
.	.	.	4d	4a
=45	=45	=45	=45	=45
1E	0r	0r	2e	1g
.	.	.	1c	.
1F	.	.	.	1a
.	.	.	2d	.
=46	=46	=46	=46	=46
1.G	0r	0r	2.B	1d
.	.	.	4c	.
.	.	.	4d	1r
.	.	.	4e	.
2F	.	.	[2d	.
=47	=47	=47	=47	=47
2E	0r	0r	4d]	1g
.	.	.	4c	.
4D	.	.	1c	.
4C	.	.	.	.
1D	.	.	.	1f
.	.	.	2B	.
=48	=48	=48	=48	=48
1C	0r	0r	2c	1e
.	.	.	1e	.
1F	.	.	.	1a
.	.	.	2d	.
=49	=49	=49	=49	=49
1E	0c	0r	1e	1g
1F	.	.	2r	1a
.	.	.	2A	.
=50	=50	=50	=50	=50
2.G	1B	0g	1d	2d
.	.	.	.	1g
4F	.	.	.	.
1E	1c	.	1e	.
.	.	.	.	4f
.	.	.	.	4e
=51	=51	=51	=51	=51
1D	1d	1f	1A	1f
1r	2c	1g	1r	2e
.	2B	.	.	2d
=52	=52	=52	=52	=52
1AA	1A	1a	2r	1e
.	.	.	2A	.
2BB	1r	2g	4D	2d
.	.	.	4E	.
[2D	.	2f	4F	[2a
.	.	.	4G	.
=53	=53	=53	=53	=53
2D]	1A	1e	2A	4a]
.	.	.	.	4b
2C	.	.	2.E	2cc
1BB	1G	1r	.	1dd
.	.	.	4F	.
.	.	.	2D	.
=54	=54	=54	=54	=54
1AA	2A	1e	1E	2cc
.	1c	.	.	1a
1D	.	1d	1F	.
.	2B	.	.	4g
.	.	.	.	4f
=55	=55	=55	=55	=55
2C	2c	2e	1G	1e
2E	2G	1g	.	.
1D	1A	.	2.d	2r
.	.	2f#i	.	2a
.	.	.	4c	.
=56	=56	=56	=56	=56
2r	0G	2g	4B	2b
.	.	.	4A	.
1G	.	2d	1B	2.dd
.	.	1e	.	.
.	.	.	.	4g
2E	.	.	2G	2g
=57	=57	=57	=57	=57
2F	0r	0d	2A	2f
1G	.	.	1B	2d
.	.	.	.	1g
4F	.	.	4A	.
4E	.	.	4G	.
=58	=58	=58	=58	=58
2D	0r	0r	2A	1f
2C	.	.	1c	.
1D	.	.	.	1f
.	.	.	2B	.
=59	=59	=59	=59	=59
1C	0r	0r	1c	1.e
[1C	.	.	[1e	.
.	.	.	.	2c
=60	=60	=60	=60	=60
1C]	[0G	0r	2e]	1cc
.	.	.	4d	.
.	.	.	4c	.
1C	.	.	2e	1cc
.	.	.	2f	.
=61	=61	=61	=61	=61
1GG	1G]	[0d	1g	2b
.	.	.	.	2.dd
1GG	1G	.	2d	.
.	.	.	.	4cc
.	.	.	[2g	4b
.	.	.	.	4a
=62	=62	=62	=62	=62
1.G	0G	1d]	2g]	2g
.	.	.	4f	1b
.	.	.	4e	.
.	.	1d	2.d	.
4F	.	.	.	4a
4E	.	.	4e	4g
=63	=63	=63	=63	=63
2.D	0A	0d	0f	2f
.	.	.	.	1a
4E	.	.	.	.
1F	.	.	.	.
.	.	.	.	4g
.	.	.	.	4f
=64	=64	=64	=64	=64
0C	0G	0e	1g	2e
.	.	.	.	2.g
.	.	.	2e	.
.	.	.	.	4a
.	.	.	[2g	[2cc
=65	=65	=65	=65	=65
0GG	0r	0d	2g]	2cc]
.	.	.	4f	4b
.	.	.	4e	4a
.	.	.	1d	1b
=66	=66	=66	=66	=66
2.C	0r	0r	[0c	2.cc
4D	.	.	.	4b
2E	.	.	.	2g
[2F	.	.	.	[2a
=67	=67	=67	=67	=67
2F]	0r	0r	0c]	2a]
4E	.	.	.	4g
4D	.	.	.	4f
2E	.	.	.	2g
[2F	.	.	.	[2a
=68	=68	=68	=68	=68
4F]	0F	0r	1c	4a]
4E	.	.	.	4g
4D	.	.	.	4f
4C	.	.	.	4e
1D	.	.	1B	1f
=69	=69	=69	=69	=69
2.C	0G	0c	2.c	2.e
4D	.	.	4B	4d
1E	.	.	1G	[1g
=70	=70	=70	=70	=70
0D	0A	0d	1r	2g]
.	.	.	.	4f#i
.	.	.	.	4e
.	.	.	1d	1f#i
=71	=71	=71	=71	=71
1r	1G	0e	1B	[0g
1C	[1c	.	1c	.
=72	=72	=72	=72	=72
0G	2c]	1d	1.d	0g]
.	4B	.	.	.
.	4A	.	.	.
.	1B	[1g	.	.
.	.	.	2G	.
=73	=73	=73	=73	=73
0A	0c	2g]	0c	1r
.	.	4f#i	.	.
.	.	4e	.	.
.	.	1f#i	.	[1cc
=74	=74	=74	=74	=74
0G	0r	0g	0d	2cc]
.	.	.	.	4b
.	.	.	.	4a
.	.	.	.	1b
=75	=75	=75	=75	=75
2.C	0r	0r	1c	0cc
4D	.	.	.	.
2E	.	.	1c	.
2F	.	.	.	.
=76	=76	=76	=76	=76
2D	0r	0r	1B	1r
1G	.	.	.	.
.	.	.	1A	1cc
2F#i	.	.	.	.
=77	=77	=77	=77	=77
1G	0r	0r	2G	1b
.	.	.	2B	.
1r	.	.	2c	1a
.	.	.	2d	.
=78	=78	=78	=78	=78
0r	0r	0r	2.e	2.g
.	.	.	4d	4f
.	.	.	4c	2g
.	.	.	4B	.
.	.	.	[2c	[2a
=79	=79	=79	=79	=79
0r	0r	0r	4c]	4a]
.	.	.	4B	4g
.	.	.	4A	1g
.	.	.	4G	.
.	.	.	1A	.
.	.	.	.	2f#i
=80	=80	=80	=80	=80
*M3/1	*M3/1	*M3/1	*M3/1	*M3/1
*met(C|3)	*met(C|3)	*met(C|3)	*met(C|3)	*met(C|3)
1G	1B	0.r	1G	0g
1E	1G	.	1.B	.
1G	1B	.	.	1r
.	.	.	2c	.
=81	=81	=81	=81	=81
0D	0A	1f	0d	1a
.	.	1d	.	1a
1r	1r	1f	1r	1a
=82	=82	=82	=82	=82
1.AA	0c	0e	1e	0a
.	.	.	1e	.
2BB	.	.	.	.
1C	1c	1r	1e	1r
=83	=83	=83	=83	=83
1GG	1B	0g	0d	0.r
0G	1G	.	.	.
.	1B	1g	1r	.
=84	=84	=84	=84	=84
0D	0A	1f	1d	1a
.	.	1d	1d	1a
1r	1r	1f	1d	1a
=85	=85	=85	=85	=85
2AA	0A	0e	0c	0cc
2BB	.	.	.	.
2C	.	.	.	.
2D	.	.	.	.
1E	1G	1r	1B	1r
=86	=86	=86	=86	=86
2C	0c	0e	1.e	0.r
2D	.	.	.	.
2E	.	.	.	.
2F	.	.	2A	.
1G	1B	1d	1d	.
=87	=87	=87	=87	=87
1E	1G	0g	1G	0r
1D	0A	.	1d	.
1AA	.	1f	1c	1cc
=88	=88	=88	=88	=88
1BB	[0.G	1d	1d	2b
.	.	.	.	2a
1.C	.	0e	1G	2g
.	.	.	.	2f
.	.	.	1c	2e
2BB	.	.	.	2d
=89	=89	=89	=89	=89
1GG	1G]	[0.d	1B	1.g
0D	0A	.	0d	.
.	.	.	.	4f#i
.	.	.	.	4e
.	.	.	.	1f#i
=90	=90	=90	=90	=90
1GG	[0.Gl	1d]	1B	[0.gl
0C	.	0e	0c	.
=91	=91	=91	=91	=91
0.GGl	0.G]	0.dl	0.Bl	0.g]
==	==	==	==	==
*-	*-	*-	*-	*-
!!!system-decoration: s1,s2,s3,s4,s5
!!!RDF**kern: i = editorial accidental
!!!RDF**kern: l = terminal long
!!!ENC: Janosch Umbreit
!!!END: 2026/3/13
!!!EED: Benjamin Ory
!!!EEV: 2026/06/15
!!!YEC: Copyright 2026 Benjamin Ory, All Rights Reserved
!!!ONB: Translated from MusicXML on 2026/06/15
!!muse2ps: C^@{COM}^i2I150v90,90,90,90,120c120z18l2770t130
